assets/icons/icon_media_linkedin_green.svg

<svg width="21" height="21" viewBox="0 0 21 21" fill="none" xmlns="http://www.w3.org/2000/svg">
<path d="M5.61328 7.73242H1.63415C1.45755 7.73242 1.31445 7.8841 1.31445 8.07113V21.6146C1.31445 21.8017 1.45755 21.9534 1.63415 21.9534H5.61328C5.78988 21.9534 5.93297 21.8017 5.93297 21.6146V8.07113C5.93297 7.8841 5.78988 7.73242 5.61328 7.73242Z" fill="#03CCAB"/>
<path d="M3.62573 1C2.17789 1 1 2.24659 1 3.77884C1 5.31177 2.17789 6.55884 3.62573 6.55884C5.07241 6.55884 6.24934 5.31171 6.24934 3.77884C6.24941 2.24659 5.07241 1 3.62573 1Z" fill="#03CCAB"/>
<path d="M15.7353 7.39648C14.1371 7.39648 12.9557 8.12437 12.2392 8.95143V8.0718C12.2392 7.88477 12.0961 7.73309 11.9195 7.73309H8.10876C7.93216 7.73309 7.78906 7.88477 7.78906 8.0718V21.6153C7.78906 21.8024 7.93216 21.954 8.10876 21.954H12.0792C12.2558 21.954 12.3989 21.8024 12.3989 21.6153V14.9144C12.3989 12.6564 12.9778 11.7767 14.4635 11.7767C16.0815 11.7767 16.2101 13.1869 16.2101 15.0306V21.6154C16.2101 21.8025 16.3532 21.9541 16.5298 21.9541H20.5017C20.6783 21.9541 20.8214 21.8025 20.8214 21.6154V14.1865C20.8214 10.8289 20.2171 7.39648 15.7353 7.39648Z" fill="#03CCAB"/>
</svg>

<svg width="21" height="21" fill="none" xmlns="http://www.w3.org/2000/svg"><path d="M5.613 7.732H1.634c-.176 0-.32.152-.32.34v13.543c0 .187.144.338.32.338h3.98c.176 0 .319-.151.319-.338V8.07c0-.187-.143-.339-.32-.339ZM3.626 1C2.178 1 1 2.247 1 3.779c0 1.533 1.178 2.78 2.626 2.78 1.446 0 2.623-1.247 2.623-2.78C6.25 2.247 5.072 1 3.626 1ZM15.735 7.396c-1.598 0-2.78.728-3.496 1.555v-.88c0-.186-.143-.338-.32-.338H8.11c-.177 0-.32.152-.32.339v13.543a.33.33 0 0 0 .32.339h3.97a.33.33 0 0 0 .32-.339v-6.7c0-2.259.579-3.138 2.065-3.138 1.617 0 1.746 1.41 1.746 3.254v6.584a.33.33 0 0 0 .32.34h3.972a.33.33 0 0 0 .32-.34v-7.428c0-3.358-.605-6.79-5.087-6.79Z" fill="#03CCAB"/></svg>
